favicon.svg

<svg width="18" height="18" viewBox="0 0 18 18" fill="none" xmlns="http://www.w3.org/2000/svg">
<rect width="18" height="18" fill="#DEDEDE"/>
<g id="Tablet" clip-path="url(#clip0_0_1)">
<rect width="768" height="7468" transform="translate(-32 -43)" fill="#7A3145"/>
<g id="Hero ">
<rect width="768" height="1024" transform="translate(-32 -43)" fill="#576F35"/>
</g>
<g id="Header">
<g id="logo">
<g id="vector">
<g id="Vector">
<path d="M16.3587 0.176539H14.1034C13.4075 0.176539 12.8433 0.729391 12.8433 1.41141V3.62163C12.8433 4.30365 13.4075 4.85654 14.1034 4.85654H16.3587C17.0547 4.85654 17.6188 4.30365 17.6188 3.62163V1.41141C17.6188 0.729391 17.0547 0.176539 16.3587 0.176539Z" fill="#FBFBFB"/>
<path d="M3.78584 12.96H1.35702C0.607555 12.96 0 13.5129 0 14.1949V16.4051C0 17.0871 0.607555 17.64 1.35702 17.64H3.78584C4.5353 17.64 5.14286 17.0871 5.14286 16.4051V14.1949C5.14286 13.5129 4.5353 12.96 3.78584 12.96Z" fill="#FBFBFB"/>
<path d="M3.5154 6.51477H1.26007C0.564171 6.51477 0 7.06763 0 7.74965V9.95986C0 10.6419 0.564299 11.1948 1.2602 11.1948H3.5154C4.21134 11.1948 4.77551 10.6419 4.77551 9.95986V7.74965C4.77551 7.06763 4.21134 6.51477 3.5154 6.51477Z" fill="#FBFBFB"/>
<path d="M9.99332 12.9252H7.738C7.0421 12.9252 6.47792 13.4781 6.47792 14.1601L6.4778 16.3703C6.4778 17.0523 7.04222 17.6052 7.73813 17.6052H9.99332C10.6893 17.6052 11.2534 17.0523 11.2534 16.3703V14.1601C11.2534 13.4781 10.6893 12.9252 9.99332 12.9252Z" fill="#FBFBFB"/>
<path d="M3.5154 0.0485281H1.26007C0.564171 0.0485281 0 0.601379 0 1.2834V3.49362C0 4.17564 0.564299 4.72853 1.2602 4.72853H3.5154C4.21134 4.72853 4.77551 4.17564 4.77551 3.49362V1.2834C4.77551 0.601379 4.21134 0.0485281 3.5154 0.0485281Z" fill="#FBFBFB"/>
<path d="M10.1677 6.57983H7.91236C7.21645 6.57983 6.65228 7.13268 6.65228 7.8147V10.0249C6.65228 10.7069 7.21658 11.2598 7.91249 11.2598H10.1677C10.8636 11.2598 11.4278 10.7069 11.4278 10.0249V7.8147C11.4278 7.13268 10.8636 6.57983 10.1677 6.57983Z" fill="#FBFBFB"/>
<path d="M16.5 12.9252H14.2447C13.5488 12.9252 12.9846 13.4781 12.9846 14.1601V16.3703C12.9846 17.0523 13.5489 17.6052 14.2448 17.6052H16.5C17.1959 17.6052 17.7601 17.0523 17.7601 16.3703V14.1601C17.7601 13.4781 17.1959 12.9252 16.5 12.9252Z" fill="#FBFBFB"/>
<path d="M9.89471 0.125835H7.63938C6.94348 0.125835 6.37931 0.678686 6.37931 1.36071V3.57093C6.37931 4.25295 6.94361 4.80583 7.63951 4.80583H9.89471C10.5906 4.80583 11.1548 4.25253 11.1548 3.57051V1.36071C11.1548 0.678686 10.5906 0.125835 9.89471 0.125835Z" fill="#FBFBFB"/>
<path d="M16.3371 6.70827H14.0818C13.3859 6.70827 12.8217 7.26113 12.8217 7.94315V10.1534C12.8217 10.8354 13.386 11.3883 14.0819 11.3883H16.3371C17.033 11.3883 17.5972 10.8354 17.5972 10.1534V7.94315C17.5972 7.26113 17.033 6.70827 16.3371 6.70827Z" fill="#FBFBFB"/>
</g>
</g>
</g>
</g>
</g>
<defs>
<clipPath id="clip0_0_1">
<rect width="768" height="7468" fill="white" transform="translate(-32 -43)"/>
</clipPath>
</defs>
</svg>

<svg xmlns="http://www.w3.org/2000/svg" width="18" height="18" fill="none">
  <path fill="#DEDEDE" d="M0 0h18v18H0z"/>
  <g clip-path="url(#a)">
    <path fill="#7A3145" d="M-32-43h768v7468H-32z"/>
    <path fill="#576F35" d="M-32-43h768V981H-32z"/>
    <g fill="#FBFBFB">
      <path d="M16.359.177h-2.256c-.695 0-1.26.552-1.26 1.234v2.21c0 .683.565 1.236 1.26 1.236h2.256c.696 0 1.26-.553 1.26-1.235v-2.21c0-.683-.564-1.235-1.26-1.235ZM3.786 12.96H1.357c-.75 0-1.357.553-1.357 1.235v2.21c0 .682.608 1.235 1.357 1.235h2.429c.75 0 1.357-.553 1.357-1.235v-2.21c0-.682-.608-1.235-1.357-1.235ZM3.515 6.515H1.26C.564 6.515 0 7.068 0 7.75v2.21c0 .682.564 1.235 1.26 1.235h2.255c.696 0 1.26-.553 1.26-1.235V7.75c0-.682-.564-1.235-1.26-1.235ZM9.993 12.925H7.738c-.696 0-1.26.553-1.26 1.235v2.21c0 .682.564 1.235 1.26 1.235h2.255c.696 0 1.26-.553 1.26-1.235v-2.21c0-.682-.564-1.235-1.26-1.235ZM3.515.049H1.26C.564.049 0 .6 0 1.283v2.21C0 4.177.564 4.73 1.26 4.73h2.255c.696 0 1.26-.553 1.26-1.235v-2.21C4.776.6 4.212.048 3.516.048ZM10.168 6.58H7.912c-.696 0-1.26.553-1.26 1.235v2.21c0 .682.565 1.235 1.26 1.235h2.256c.696 0 1.26-.553 1.26-1.235v-2.21c0-.682-.564-1.235-1.26-1.235ZM16.5 12.925h-2.255c-.696 0-1.26.553-1.26 1.235v2.21c0 .682.564 1.235 1.26 1.235H16.5c.696 0 1.26-.553 1.26-1.235v-2.21c0-.682-.564-1.235-1.26-1.235ZM9.895.126H7.639c-.696 0-1.26.553-1.26 1.235v2.21c0 .682.565 1.235 1.26 1.235h2.256c.696 0 1.26-.553 1.26-1.235V1.36c0-.682-.564-1.235-1.26-1.235ZM16.337 6.708h-2.255c-.696 0-1.26.553-1.26 1.235v2.21c0 .682.564 1.235 1.26 1.235h2.255c.696 0 1.26-.553 1.26-1.235v-2.21c0-.682-.564-1.235-1.26-1.235Z"/>
    </g>
  </g>
  <defs>
    <clipPath id="a">
      <path fill="#fff" d="M-32-43h768v7468H-32z"/>
    </clipPath>
  </defs>
</svg>
